X:1
T:Meg Merriliees’ Hornpipe
L:1/8
M:2/2
I:linebreak $
K:A
V:1 treble 
V:1
 (cd) | edcd Aaga | (fe)ee e2 cd | (ef)ec (ea)ec | (cB)BB [GB]2 cd | edcd Aaga |$ (fe)ee e2 cd | %7
 (ef)ec (BA)Bc | A2 c2 A2 :: e2 | (^de)fe (=dc)dB | ceAe ceAe |$ (^de)fe (dc)dB | (BA)AA A2 e2 | %14
 (^de)fd (=dc)dB | ceAe ceAe | (dc)de (fe)fg |$ (ba)aa a2 :| %18
